X:1646
L:1/8
M:6/8
K:D
 A |"D" A2 A A2 A | A^GA BAF |"A" E2 F"A7" A2 G |"D" F3 z2 A | A2 A A2 A | A^GA BAB | 
"A/E" c2 d"E7" c2 B |"A" A3 z2 || A |"D" d2 d cBA |"G" B3"D" A2 A |"G" B2 d"D" A2 F |"A" E3 z2 E | 
"D" F2 F"A" A2 A |"D" d2 d"G" (e!fermata!d)B |"D/A" A2 A"A7" B2 c |"D" d3 z2 |]

